F1 Grump/assets/track outlines/Mexico - White_1.svg

<svg width="4371" height="2752" viewBox="0 0 4371 2752" fill="none" xmlns="http://www.w3.org/2000/svg">
<g clip-path="url(#clip0_13_721)">
<path d="M4198.31 2742.49C4185.68 2748.28 4170.81 2751.59 4154.31 2752.11C4122.18 2753.11 4077.42 2742.35 4057.1 2708.83C4022.32 2651.36 3970.7 2535.12 3910.95 2400.55C3826.55 2210.47 3721.52 1973.93 3654.66 1891.16C3636.09 1868.16 3594.23 1870.68 3532.47 1877.16C3486.2 1881.99 3438.35 1887 3394.47 1874.16C3354.87 1862.51 3314.95 1839.53 3272.67 1815.25C3220.14 1785.02 3160.59 1750.79 3119.75 1754.15C3065.45 1758.58 2981.44 1801.15 2900.26 1842.25C2806.78 1889.54 2718.46 1934.25 2647.48 1938.58C2565.76 1943.58 2519.79 1883.58 2486.2 1839.73C2464.91 1811.95 2444.78 1785.73 2424.57 1784.02C2289.12 1772.78 2021.52 1795.57 1920.65 1820.75C1846.19 1839.35 1654.01 1918.03 1406.59 2031.23C1396.04 2036.02 1375.7 2045.47 1348.95 2057.84C1272.86 2093.03 1145.54 2151.84 1039.52 2199.73C1008.27 2213.73 982.962 2225.99 962.132 2236C858.192 2285.87 828.132 2295.46 757.432 2211.15C740.872 2191.41 716.702 2156.72 686.142 2112.82C640.882 2047.82 550.942 1918.74 508.622 1885.6C507.222 1891.26 507.272 1901.6 508.952 1922.23C511.512 1953.15 514.952 1995.52 484.192 2026.73C453.192 2058.21 405.692 2058.82 372.652 2056.56C336.042 2054.06 270.212 2088.73 217.292 2116.56C176.402 2138.05 137.802 2158.37 105.882 2166.31C85.8818 2171.31 65.0218 2164.46 50.0618 2148.03C-2.39822 2090.29 -14.8482 1854 18.5218 1759.46C48.4318 1674.82 124.922 1598.72 228.442 1550.69C333.502 1501.9 499.792 1428.33 692.442 1343.08C983.142 1214.43 1344.92 1054.33 1606.01 930.18C1733.27 869.7 1864.01 804.07 1990.37 740.63C2190.84 639.99 2380.11 544.92 2554.92 469.63C2688.98 411.84 2842.82 341.2 2978.74 278.78C3097.44 224.28 3209.61 172.78 3293.39 136.72L3333.49 119.32C3634.21 -11.56 3691.96 -24.68 3719.64 31.32C3738.77 70.12 3750.54 101.73 3760.93 129.62C3778 175.44 3788.26 203.1 3819.69 231.86C3824.14 235.95 3833.19 235 3858.13 230.1C3883.91 225.1 3916.02 218.79 3951.4 228.66C4000.22 242.27 4025.74 307.18 4081.05 475.57C4086.11 490.97 4091.18 506.34 4096.17 521.32C4140.87 655.05 4159.98 1988.62 4147.17 2268.08C4165.1 2269.4 4193.25 2268.08 4212.01 2267.16C4273.01 2264.23 4325.67 2261.73 4354.65 2293.86C4367.85 2308.54 4373.43 2327.8 4370.32 2348.15C4357.19 2434.3 4267.04 2646.66 4234.04 2709.62C4226.5 2723.99 4214.15 2735.16 4198.29 2742.43M4134.8 2656C4139.87 2658 4148.97 2658.88 4155.09 2658.16C4187.44 2593.74 4251.5 2438.54 4272.09 2359.5C4255.18 2358.96 4232.31 2360.04 4216.46 2360.81C4154.93 2363.75 4101.78 2366.29 4071.22 2335.13C4064.57 2328.33 4059.46 2320.19 4056.21 2311.25C4052.97 2302.32 4051.68 2292.79 4052.43 2283.31C4068.83 2040.17 4044.88 663.83 4007.2 551.08C4002.14 535.95 3997.03 520.4 3991.9 504.85C3971.8 443.63 3938.85 343.31 3919.61 317.68C3907.03 316.07 3892.52 318.92 3876.09 322.14C3842.46 328.73 3796.41 337.76 3756.3 301.01C3708.23 257.01 3691.9 213.13 3673 162.37C3665.7 142.75 3657.68 121.17 3646.75 96.8C3588.13 110.68 3438.9 175.63 3370.83 205.27L3330.36 222.81C3247.69 258.44 3136 309.74 3017.84 364C2881.57 426.63 2727.11 497.52 2592 555.75C2419.86 630 2231.59 724.4 2032.41 824.41C1905.54 888.08 1774.41 953.94 1646.26 1014.85C1384 1139.54 1021.57 1299.94 730.352 1428.85C538.142 1513.91 372.352 1587.32 267.922 1635.75C188.332 1672.67 128.152 1730.6 106.922 1790.75C81.0518 1864 95.2918 2006.23 112.002 2064.52C130.692 2056.47 152.272 2044.78 173.642 2033.52C240.282 1998.52 315.882 1958.7 379.042 1962.99C401.942 1964.56 412.512 1962.2 416.422 1960.88C417.522 1954.18 416.342 1939.79 415.532 1929.88C412.412 1892.16 407.342 1821.8 480.072 1790.99C547.402 1762.64 618.002 1850.99 763.072 2059.21C791.142 2099.52 815.422 2134.34 829.272 2150.87C836.042 2158.87 849.472 2174.87 855.892 2179.87C866.292 2177.99 893.182 2165.04 921.562 2151.45C942.942 2141.18 968.872 2128.71 1001 2114.23C1106.58 2066.59 1233.67 2007.81 1309.61 1972.71C1336.49 1960.26 1356.99 1950.84 1367.61 1945.93C1488.77 1890.51 1783.03 1758.46 1897.95 1729.76C2008.62 1702.11 2282.4 1678.1 2432.35 1690.55C2493.95 1695.66 2530.92 1743.91 2560.64 1782.68C2594.1 1826.33 2613.04 1846.68 2641.84 1844.98C2693.4 1841.86 2777.04 1799.52 2857.95 1758.55C2951.33 1711.28 3039.5 1666.63 3112.1 1660.66C3182.1 1654.93 3251.88 1695.09 3319.43 1733.95C3356.73 1755.39 3391.98 1775.66 3420.89 1784.15C3447.06 1791.83 3485.55 1787.8 3522.79 1783.89C3590.87 1776.77 3675.65 1767.89 3727.66 1832.25C3802.26 1924.63 3905.54 2157.25 3996.66 2362.48C4051.24 2485.4 4102.87 2601.66 4134.81 2656.04" fill="white"/>
</g>
<defs>
<clipPath id="clip0_13_721">
<rect width="4371" height="2752" fill="white"/>
</clipPath>
</defs>
</svg>

<svg xmlns="http://www.w3.org/2000/svg" viewBox="0 0 4371.18 3454.91"><defs><style>.cls-1{fill:#fff;}</style></defs><title>Mexico - White_1</title><g id="Layer_2" data-name="Layer 2"><g id="Layer_1-2" data-name="Layer 1"><path class="cls-1" d="M4198.31,2742.49c-12.63,5.79-27.5,9.1-44,9.62-32.13,1-76.89-9.76-97.21-43.28-34.78-57.47-86.4-173.71-146.15-308.28-84.4-190.08-189.43-426.62-256.29-509.39-18.57-23-60.43-20.48-122.19-14-46.27,4.83-94.12,9.84-138-3-39.6-11.65-79.52-34.63-121.8-58.91-52.53-30.23-112.08-64.46-152.92-61.1-54.3,4.43-138.31,47-219.49,88.1-93.48,47.29-181.8,92-252.78,96.33-81.72,5-127.69-55-161.28-98.85-21.29-27.78-41.42-54-61.63-55.71-135.45-11.24-403.05,11.55-503.92,36.73-74.46,18.6-266.64,97.28-514.06,210.48-10.55,4.79-30.89,14.24-57.64,26.61-76.09,35.19-203.41,94-309.43,141.89-31.25,14-56.56,26.26-77.39,36.27-103.94,49.87-134,59.46-204.7-24.85-16.56-19.74-40.73-54.43-71.29-98.33-45.26-65-135.2-194.08-177.52-227.22-1.4,5.66-1.35,16,.33,36.63,2.56,30.92,6,73.29-24.76,104.5-31,31.48-78.5,32.09-111.54,29.83-36.61-2.5-102.44,32.17-155.36,60-40.89,21.49-79.49,41.81-111.41,49.75-20,5-40.86-1.85-55.82-18.28C-2.4,2090.29-14.85,1854,18.52,1759.46c29.91-84.64,106.4-160.74,209.92-208.77,105.06-48.79,271.35-122.36,464-207.61,290.7-128.65,652.48-288.75,913.57-412.9,127.26-60.48,258-126.11,384.36-189.55,200.47-100.64,389.74-195.71,564.55-271,134.06-57.79,287.9-128.43,423.82-190.85,118.7-54.5,230.87-106,314.65-142.06l40.1-17.4c300.72-130.88,358.47-144,386.15-88,19.13,38.8,30.9,70.41,41.29,98.3,17.07,45.82,27.33,73.48,58.76,102.24,4.45,4.09,13.5,3.14,38.44-1.76,25.78-5,57.89-11.31,93.27-1.44,48.82,13.61,74.34,78.52,129.65,246.91,5.06,15.4,10.13,30.77,15.12,45.75,44.7,133.73,63.81,1467.3,51,1746.76,17.93,1.32,46.08,0,64.84-.92,61-2.93,113.66-5.43,142.64,26.7,13.2,14.68,18.78,33.94,15.67,54.29-13.13,86.15-103.28,298.51-136.28,361.47-7.54,14.37-19.89,25.54-35.75,32.81M4134.8,2656c5.07,2,14.17,2.88,20.29,2.16,32.35-64.42,96.41-219.62,117-298.66-16.91-.54-39.78.54-55.63,1.31-61.53,2.94-114.68,5.48-145.24-25.68a66.61,66.61,0,0,1-18.79-51.82c16.4-243.14-7.55-1619.48-45.23-1732.23-5.06-15.13-10.17-30.68-15.3-46.23-20.1-61.22-53.05-161.54-72.29-187.17-12.58-1.61-27.09,1.24-43.52,4.46-33.63,6.59-79.68,15.62-119.79-21.13-48.07-44-64.4-87.88-83.3-138.64-7.3-19.62-15.32-41.2-26.25-65.57-58.62,13.88-207.85,78.83-275.92,108.47l-40.47,17.54C3247.69,258.44,3136,309.74,3017.84,364,2881.57,426.63,2727.11,497.52,2592,555.75,2419.86,630,2231.59,724.4,2032.41,824.41c-126.87,63.67-258,129.53-386.15,190.44-262.26,124.69-624.69,285.09-915.91,414-192.21,85.06-358,158.47-462.43,206.9-79.59,36.92-139.77,94.85-161,155C81.05,1864,95.29,2006.23,112,2064.52c18.69-8.05,40.27-19.74,61.64-31,66.64-35,142.24-74.82,205.4-70.53,22.9,1.57,33.47-.79,37.38-2.11,1.1-6.7-.08-21.09-.89-31-3.12-37.72-8.19-108.08,64.54-138.89,67.33-28.35,137.93,60,283,268.22,28.07,40.31,52.35,75.13,66.2,91.66,6.77,8,20.2,24,26.62,29,10.4-1.88,37.29-14.83,65.67-28.42,21.38-10.27,47.31-22.74,79.44-37.22,105.58-47.64,232.67-106.42,308.61-141.52,26.88-12.45,47.38-21.87,58-26.78,121.16-55.42,415.42-187.47,530.34-216.17,110.67-27.65,384.45-51.66,534.4-39.21,61.6,5.11,98.57,53.36,128.29,92.13,33.46,43.65,52.4,64,81.2,62.3,51.56-3.12,135.2-45.46,216.11-86.43,93.38-47.27,181.55-91.92,254.15-97.89,70-5.73,139.78,34.43,207.33,73.29,37.3,21.44,72.55,41.71,101.46,50.2,26.17,7.68,64.66,3.65,101.9-.26,68.08-7.12,152.86-16,204.87,48.36,74.6,92.38,177.88,325,269,530.23,54.58,122.92,106.21,239.18,138.15,293.56M83.21,2075.28h0Z"/><path class="cls-1" d="M1371.91,3449.86V3100.12h70.25l99.06,295.66,99-295.66h70.25v349.74h-38.91v-308.3h-7.08L1563,3437.22h-43.47L1417.9,3141.56h-7.08v308.3Z"/><path class="cls-1" d="M1796.44,3449.86V3100.12h212.77v34.37H1835.36v120.79h143.53v33.86H1835.36v126.35h173.85v34.37Z"/><path class="cls-1" d="M2086.53,3100.12l88.45,149.6,88.95-149.6h42l-107.65,177.4,107.65,172.34h-44L2174,3304.81l-89.46,145.05h-42l108.16-171.33-108.16-178.41Z"/><path class="cls-1" d="M2357.93,3449.86V3100.12h38.92v349.74Z"/><path class="cls-1" d="M2693.51,3444.3q-52.07,10.6-93.5,10.61t-67-11.37a83.87,83.87,0,0,1-39.42-35.38q-13.9-24-19.2-55.09t-5.31-77.58q0-46.48,5.31-78.08t19.2-55.85a82.34,82.34,0,0,1,39.17-35.37q25.27-11.11,65.7-11.12t95,11.12L2692,3139q-51-9.11-91-9.1-55.61,0-73.53,33.1t-17.95,113q0,39.93,3.29,64.18a140.55,140.55,0,0,0,12.89,43.72q9.59,19.47,28.05,27.8t54.07,8.34q35.64,0,84.15-9.1Z"/><path class="cls-1" d="M3013.93,3277.52q0,93.49-29.82,135.44t-108.4,41.95q-78.6,0-108.41-43t-29.82-135.19q0-92.24,30.32-137t107.65-44.73q77.33,0,107.9,44.47T3013.93,3277.52Zm-236.52-1q0,76.81,20.21,110.42t78.09,33.61q57.86,0,77.83-32.85t20-110.17q0-77.33-20.72-112.71t-77.58-35.38q-56.86,0-77.33,35.13T2777.41,3276.51Z"/></g></g></svg>
